X:1
T:Mr. Brodie of Brodie's Strathspey
M:C
L:1/16
R:Strathspey
B:Gow & Shepherd - Collection of entirely original strathspey, reels,
B:marches, quicksteps etc. (1796, p. 1)
Z:AK/Fiddler's Companion
K:D
A,3DD3A, A,3DD3B|TA3FD3F E4[C4E4]|A,3DD3A, A,3DD3B|TA3FE3F D4D4:|
Ad3d3e defg a2d2|g3bf3a Te4e4|Ad3d2e2 defg a2f2|B2c2 F2d2 D4D4|
Ad3d2e2 defg a2d2|g3bf3a Te4e4|A,D3D3A, A,D3D3B|A2F2TE2F2 D4D4||

